X: 1
T: WATTLE FLAT RACES
R: jig
Z: 2014 John Chambers <jc:trillian.mit.edu>
N: In a set for Farmers Jig
S: http://www.kangaroovalleyfolkfestival.com.au/USERIMAGES/Bush%20Dance%2014-05-03.pdf
N: Original multiple endings simplified by pickup notes to the beginnings of the strains.
N: In a set for Circassian Circle
M: 6/8
L: 1/8
K: G
d |\
"G"ggg ddd | BdB G2G | DEF GAB | "D7"dcB A2A |\
"D7"aaa fff | ddd c2c | DEF ABA | "G"G3 B2 :|
|: c |\
"G"d>ed BGB | d>ed BGB | "G"d2B "C"e2B | "D7"d2c A2B |\
"D7"c>dc AFA | c3 d3 | fed cBA |[1 "G"B3 B2 :|[2 "G"G3- G2 |]
